!!! OTL: Berkowitz623
!!! Chapter: 1
!!! Section: V
!!! Page: 159
!!! Mode: 
!!! Encoder: AR
**kern
*staff1
=1-
!!pagebreak:original
*clefF4
*k[]
*C:
*M4/4
8C/L
8D/J
q0.332031E-\L
q0.332031d\
q0.335938B\J
4G\
8r
8B-\
=2
8D\L
8D\
8D\
8B-\J
8BBn/L
8BB/
8BB/
8B-/J
=3
8C/L
8D/J
q0.332031E\L
q0.332031B-\
q0.335938A-\J
4c\
8Bn\L
8c#\J
=4
8d\L
8E-\
8B\
8E-\J
8d\L
8E-\
8B\
8An\J
=5
!!linebreak:original
8F\L
8F\
8G#\
8F#\J
2D\
=6
8d\L
8c\J
q0.332031B-\L
q0.332031BBn\
q0.335938D\J
8B-\L
8A\J
4E\
=7
8G\L
8G\
8E-\
8c\J
4A\
4A\
=8
!!linebreak:original
8C\L
8B\
8G#\
8B\J
8C\L
8B\
8G#\
8A\J
=9
8c\L
8A-\
8E\
8F#\J
4D#\
4D#\
==
*-
